X: 0510
T: Culloden's Fancy
P: Culloden's Fancy
C:Caledonian Country Dances c.1754
B:RSCDS 5-10
Z:Anselm Lingnau <anselm@strathspey.org>
R:Reel (8x16) AB
M:2/4
L:1/8
K:G
B/c/|"G"[d2G2D2] "D7"[c2F2D2]|"G"[BGD]G GA/B/|"Am"cA Af/g/|"D7"aA AB/c/|
     "G"[d2G2D2] "D7"[c2F2D2]|"G"[BGD]G Gg|"D"f"Em"g"D7"dc|"G"B"C"G "G"G||
e/f/|"G"gd dB|gd dB|gd dB|"D7"cA Ac|
     "G"Bd de|"C"ef "D"f"A7"g|"D"af "A7"g"D7"c|"G"B"C"G "G"G|]
%%center Book05/0510-Cullodens_Fancy-AL.abc

%%sep 1 1 500
%%sep 1 1 500

